X:1
T:Mögen alle Menschen in Frieden leben
T:Text und Musik: Beate Wicke 
%%score [ 1 ( 2 3 ) ( 4 5 ) ]
L:1/8
Q:1/4=85
M:6/4
K:D
V:1 treble nm="Oberst."
V:2 treble nm="Sopran Alt"
V:3 treble 
V:4 bass nm="Tenor Bass"
V:5 bass 
V:1
 FG | (A2 f2) f2 f4 ef | g>f e>d c>B d2 c2 |[M:3/2] cd | e3 d cB A4 AA | d4 c2 d4 :| cc | %7
w: |||||||
w: |||||||
 c3 c de f2 d2 f2 | gfed cB d2 c2 z2 | c2 dd ed c4 ff | e4 d2 !fermata!e4"^D.C. con rep." |: %11
w: ||||
w: ||||
[M:4/4] z2 | ff f2 f2 f4 | ef g>f e>d c>B | d2 c2 |[M:3/2] z2 | eeed cB A4 z2 | dd d2 c2 d4 :| z2 | %19
w: |Let all peo- ple live|in more har- mo- ny and joy for-|e- ver||ev'- ry- bo- dy plays his part,|feel with o- pen hearts.||
w: |There will be more love|if we'll end the wars and come to-|ge- ther||try to save the splen- did earth,|our * place of birth.||
 cccc de f2 d2 ff | gfed cB d2 c2 z2 | c2 dd ed[Q:1/4=79] c4[Q:1/4=72] f/[Q:1/4=71]f[Q:1/4=68]f/ | %22
w: May all na- tions and re- li- gions live in|har- mo- ny and peace for- e- ver|God, help us ev'- ry day to go a|
w: |||
O[Q:1/4=61] e4[Q:1/4=52] d2[Q:1/4=50] !fermata!f4 |] %23
w: peace- ful way!|
w: |
V:2
"^1.\n\n2." FG | A4 A2 A4 GA | B>A G>F E>D F2 E2 |[M:3/2]"^1.\n\n2." EF | G3 F ED C4 DD | %5
w: Mö- gen|al- le Men- schen in|Frie- den mit- ein- an- der le- ben,|wir sind|eins auf die- ser Welt un- term|
w: Wird es|all die Krie- ge um|Macht und Geld auch nicht mehr ge- ben|wenn mehr|Lie- be auf der Welt uns zu-|
 F4 E2 D4 :| AA | A3 A (Bc) d2 A2 A2 | BAGF ED F2 E2 z2 | E2 FA ^GB A4 dd | c4 B2 !fermata!A4 |: %11
w: Him- mels- zelt.|Mö- gen|al- le Re- li- gio- nen im|Ein- klang mit- ein- an- der le- ben,|Gott gib' uns die- se Kraft, die uns|Frie- den schafft!|
w: sam- men hält.|Mö- gen|al- le Na * tio- nen im|Ein- klang mit- ein- an- der le- ben,|Gott gib' uns die- se Kraft, die uns|neu er- schafft!|
[M:4/4] FG | A4 A2 A4 | GA B>A G>F E>D | F2 E2 |[M:3/2] EF | G3 F ED C4 DD | F4 E2 D4 :| AA | %19
w: Let all|peo- ple live|in more har- mo- ny and joy for-|e- ver|ev'- ry-|bo- dy plays his part, feel with|o- pen hearts.|May all|
w: There will|be more love|if we'll end the wars and come to-|ge- ther|try to|save the splen- did earth, our *|place of birth.||
 A3 A Bc d2 A2 AA | BAGF ED F2 E2 z2 | E2 FA ^GB A4 d/dd/ | A4 G2 !fermata!d4 |] %23
w: na- tions and re- li- gions live in|har- mo- ny and peace for- e- ver|God, help us ev'- ry day to go a|peace- ful way!|
w: ||||
V:3
 FG | D4 E2 F4 EF | D>D C>D C>B, D2 C2 |[M:3/2] CD | E3 D CB, A,4 A,A, | D4 C2 A,4 :| CC | %7
w: Mö- gen|al- le Men- schen in|Lie- be mit- ein- an- der le- ben,|gäb' es|kei- nen Hass und Neid und so|man- ches Leid.||
w: Könn- ten|wir uns auch oh- ne|Stolz und oh- ne Gier er- he- ben|mit mehr|Freud' und Ei- nig- keit, jetzt und|al- le- zeit!||
 C3 C (DE) F2 D2 D2 | GFED CB, D2 C2 z2 | C2 DF DD C4 FF | E4 D2 C4 |:[M:4/4] FG | D4 E2 F4 | %13
w: ||||||
w: ||||||
 EF D>D C>D C>B, | D2 C2 |[M:3/2] CD | E3 D CB, A,4 A,A, | D4 C2 A,4 :| CC | C3 C DE F2 D2 DD | %20
w: |||||||
w: |||||||
 GFED CB, D2 C2 z2 | C2 DF DD C4 F/FF/ | D4 C2 D4 |] %23
w: |||
w: |||
V:4
 D,E, | F,4 G,2 A,4 G,A, | B,>A, G,>F, E,>D, E,2 A,2 |[M:3/2] A,A, | G,3 A, G,G, G,4 F,F, | %5
 A,4 G,2 F,4 :| A,A, | A,3 A, (B,G,) A,2 A,2 A,2 | B,A,G,F, E,D, F,2 E,2 z2 | %9
 E,2 A,A, B,^G,(A,B, C2) DD | C4 ^G,2 E,4 |:[M:4/4] D,E, | F,4 G,2 A,4 | G,A, B,>A, G,>F, E,>D, | %14
 E,2 A,2 |[M:3/2] A,A, | G,3 A, G,G, G,4 F,F, | A,4 G,2 F,4 :| A,A, | A,3 A, B,G, A,2 A,2 A,A, | %20
 B,A,G,F, E,D, F,2 E,2 z2 | E,2 A,A, B,^G,(A,B, C2) D/DD/ | C4 B,2 A,4 |] %23
V:5
 D,E, | (D,2 E,2) C,2 D,4 C,D, | G,>F, E,>D, A,,>B,, A,,2 C,2 |[M:3/2] E,D, | %4
 (C,B,,A,,)D, C,B,, A,,4 D,D, | (D,2 A,,2) A,,2 D,4 :| E,E, | E,3 E, (E,C,) D,2 F,2 F,2 | %8
 D,D,C,A,, A,,G,, A,,2 A,,2 z2 | C,2 D,B,, E,D, C,4 D,D, | E,4 B,,2 !fermata!A,,4 |:[M:4/4] D,E, | %12
 (D,2 E,2) C,2 D,4 | C,D, G,>F, E,>D, A,,>B,, | A,,2 C,2 |[M:3/2] E,D, | %16
 (C,B,,A,,)D, C,B,, A,,4 D,D, | (D,2 A,,2) A,,2 D,4 :| E,E, | E,3 E, E,C, D,2 F,2 F,F, | %20
 D,D,C,A,, A,,G,, A,,2 A,,2 z2 | C,2 D,B,, E,D, C,4 D,/D,D,/ | D,4 A,,2 !fermata!D,4 |] %23

